-----BEGIN PGP SIGNATURE-----
Version: BCPG v@RELEASE_NAME@

iQIcBAABCgAGBQJpn0fwAAoJEM/Xd+1zvRZXMCcP/24lcZbn0moxuQ/0Z6S+j93O
1LK4B3Cby7EkDYR1DIJGidagXCUfw5ds+DuuTowyLjCeVfQwLHF+LKaaTeXoGIEx
0Rap+nlUjskiOis5hO8p1ftDJx1rNjYWtJ8kRli7W1wOyUPrJN/7F1BUtZZla8hk
ArapYHcZI26yoRmndd3pCYK4iKez5XmWDaOajmN3FHPoY9KzE5LlaPMCs9apbJPk
1GTowFmSQhWnRHpqeQKlR0YxM1xSC5pgTIzj3kxYE1IdcN6mlL4EK4g1ncc3TCFH
WuBS4NVnAYp5chbUoGCEl7wy8lsIry/QqcsjTbyGvcPgV6wtCX0Glp1oqxjHwcfd
hLFMddXmI71Btr9+JrfelEZsyDv+6jQi8Ynk7QqzmINGVNUurmKUMrSJQ6TYA6wW
cOR4tU9s5iaNp8ihz9c0fMOklj+WXyxpz5PKumm+LQzq0MbpB9vkwLiqB/PBEQa/
ZugNlrdmnbsiXNsyXzSoPGmi4eP6CuvzPk+Gkz0GT62WRVed1SMraDjPEAPiLlqN
FDCl4X5TE5+EX6iSGkQh2sR3trIyRqyJUNds+06b1q4XkjPqJW6TmNtk9pR19HlV
1+xujy3/el/1oS6rUE4UOG0wxrr86atM6uXpm+ETDpj9CaHwwJ/Pgwor6s60D81x
eR1kA3V3Q3SOIME12sIe
=gbGb
-----END PGP SIGNATURE-----
