-----BEGIN PGP SIGNATURE-----
Version: BCPG v@RELEASE_NAME@

iQIcBAABCgAGBQJpn0flAAoJEM/Xd+1zvRZX5vkP/3r/JWdmkX07jxDFxF440Q3z
BYn+D01ENSXlrlLcEWhfm8erSjWG6hQw6pg1Nvh0r/ZdXSA4VUjtTZCURNW6xxI8
j5DoBnaZv55irplSAuHQmZoS+76NJv6GmxIbQCQd3BTEOemWxy4CFGsHp/jAPJNG
izwveUx8E5kDEzBqgLhwu8OjyIKsZGxuCXjdDbrsxIhomNhdPLuCBftN3dnzqK6d
zt3wWTDodIwoLrnMxKfhnYMV7Mx/4PKkCzQ6ThpWjIzdre/BGBLQFKj/xPMfXOiV
VbDRbA92hSfZICcl5cUhAR2oJTqPoDw/z6faercKGMyqbHUsfUs7eoCOsjJvk1Xr
7DmJN+oqmRgRu5lCEyl+qGZO7L+p3AH//SAf/NUDSc3cAh3AO8cbiEidJo0zJA9L
02PmgYcMGVLjY+Nz8NG+QKvuJNFzY/b7Ozcc44kx5JQ7ruL5SNiZgyjS0t8kMXPG
E/QUBSciYi70u6YETjevYv5LDiR53SuYIhuC9E2/SacYB6UOzFrU2HJtR3z2MrY+
y80cM1iagNLC9sBlDdSZVS8slxVCz3ySzDOXgCc7zAvDe2DK8O4z6/QRReUZuKRv
6h0FSRBBSlxERE09wmle5VbD+Q/ndyVLSI6oUZEwQV3/XMBmyWm0+0JIV3x0klwc
ulw2erOPDiYBqcebDTV/
=Sn9g
-----END PGP SIGNATURE-----
