-----BEGIN PGP SIGNATURE-----
Version: BCPG v@RELEASE_NAME@

iQIcBAABCgAGBQJpn0flAAoJEM/Xd+1zvRZXEGgP/04HpFvjizrYJenXreyOYvVS
6YvrK17IRWnN7bKo4hG97gYv6zauCP19qSCKHTqmdKCDE5mpY/XaEEY2rZMYXdBw
tTpu2zKxnu0pa7DJyIECE31mvxyYhxVtiV00n7rDmH5Y5SgIf9Hy5lGaoFQtanfY
P+NDFBHYQoeX5pAzPnjYuw2snHZBgcxubhcKZKZeo9tWMab4y9rWQLyjF475MtuU
KLCXA7HI74oKdNJpUh/ww3JV5nznob8I2mrsO/FMPz1HvspLWg51IeYTIu62bF/0
Wf6jG+tShhJH7sLuw3oPSz4sa6f8U5mnwp/zjrOHUnI444FA+5kGsIGMn9y0FyG2
kpaPIDJCQYlb8qWJffE+GXoQEeRI7BSXK4Mo9rCEOV52lniwLmcgIxwGcbxjNdj5
K91aIkGcCigZ1gtvlrdTC3lz/HXfOUKxvvnF3e23751rahU8wLHqb/lgMLujq9Hl
DuAIrRiysx1Wz9qbh3/a/L5y49ofsqTLCm5h7phLxWNG31D3s61mCNOHOiUeAYyg
DRV7WxYn73cKuQkFFKhYV+dCF5Z8lyNeSSgw9u21ncohP5yhcYY0s6RY2uv18xCR
NXpmDN/YZH1WkmZamfjRoFXk7nuKLodxClimSpWgrYdaMvGqlHxK0iMyckxAUqb9
Z/LcCHrVblWOsAciTJ9d
=vu6c
-----END PGP SIGNATURE-----
