-----BEGIN PGP SIGNATURE-----
Version: BCPG v@RELEASE_NAME@

iQIcBAABCgAGBQJpndhRAAoJEM/Xd+1zvRZXnWQP/iR90XJfU2hXLqj2kVPswWms
6mmZi5xpm+YMWelPA5XVFhKX8DIltarTbKz1OtdoNTFp4P2H9RT9OWkoJKyEnUXG
wV0LYTv3+tkLZrG5CZa83KmP8AliAZHOOpGr0ONhLxqojAUP2BvzX2TdPipe45w+
hKs5wgEvbmGbh6j4/4eZMAzxjhxTakk7J2HlPdwiE4ki0RU/TubX9JdX9zYAz8Nh
upNhO31zW3XgTIU4BuZKmqnwnFFPZe9aLcazoZUCXx7MfHO/ZreZSdFnRhrCWV8t
7TNqkUFWaVD8QrAWjaNAntgV5lPPDSW9hiloy7B2JoyvJBLrisPHWeCGdhvQiUPU
7OIuvigQY2w0oUy2OfvlH2QnMpU0ZpB5y8ptV2f+wwmwSuB+cuxqXB9ybzTs3/TN
T8A6fDMk3xenK4f3cpJ/7VpBCsl8QCkFXnX4QlmPGRlaMqxvZlVLBQsg6lmWqL3g
u2z+rfmja0Bdt8F8iVbVPi/Ab8Pq79Tyx2TKlfc2VrbHSv57BMUkaZRnB2zyMvCG
Yy3JH/Zcs8eY81A/IDY7+VpIz6keupPYHGuV8yug/NdFgvEthMBtGj/abrwARCM2
dZryeqfWsoW7iQri8E0dyOatbAhvDD37mZLimZlSiIKNN9uoItvnXlBLZZdHa865
Wdv82UFdeWrJkTc9dDUH
=pue+
-----END PGP SIGNATURE-----
