-----BEGIN PGP SIGNATURE-----
Version: BCPG v@RELEASE_NAME@

iQIcBAABCgAGBQJpndhRAAoJEM/Xd+1zvRZXR1UQAJXpme24+2aoAfFjIH/M7e3s
6YZyR+VASnrXI7ftKoZS3Ne+HUX6Mtw9yT8dWMK7yNDMxB6Ru/Bs0pPerBiWl5d0
+1/TNVNFfw5ZUCCGykGS+ZRMb7n56Vj5sL/v8/wnS4IGpZ815OtyV0DIHZaTDAxp
nBOh+ALS8uPPY4xIryWIHCHJxibF9pyF2RtG39Yf7LWK+uHEsv7qgBT7glWF0hfw
NEkD9/Hu5kIjZZcyFwE+1dkLCU48O5Q2fHdxVIru4atWxHk0VgVnMl8qgAXG/v+y
WxPul3AE+fJ9Tg29662nUn5ElE4I0IA2uFGhpXS0b2C1XUVP/Eduux+yJV/awCK5
qXpd+r5YEh3hnHbEHUwnlF9EjkaS/qgR+X3LGZEMLBnLN0FSJSkjnLZ1WEGI+5tm
P+q+iAsER6+d69o4fBF5+2PiYPKcC7L68npWJZefL2wFX9Oq8YNeBbTTqeA9k4wN
VLfXPIZzi6yT2sdMyKoRPXk0Nl/ZsBEelGJsmQUSHfx3R2f8Lv4oSlVmtlY2tRc8
NW/mQNNAeyvOg/XTUs/Hr5X7/NmfxZkfgebIZ3e14QBz8rP0uBxuvDkrjnqttvEk
ssI+XGR5lM5LiiMKCkFxodzNQa2K38/AX2jyFjxQFbC7492+fidiEe/ymEF1Wtg8
kwaWJT7kZeWVx/YP//CX
=n6gv
-----END PGP SIGNATURE-----
